!!!OTL@@DE: Lebewohl
!!!COM: Silcher, Fr.
!!!ODT: 1827
!!!OMD: Andante
!!!ONB: Volkslied um 1690 bekannt
!!!LDT: ~1690
!!!ONB: Hier nach "Des Knaben Wunderhorn" (1808)
!!!OCL: Erk, Ludwig
!!!GCO: Deutscher Liederschatz, Band 1
**kern	**kern	**kern
*staff3	*staff2	*staff1
*Ipiano	*Ipiano	*Ivox
=1-	=1-	=1-
*clefF4	*clefG2	*clefG2
*k[f#c#]	*k[f#c#]	*k[f#c#]
*D:	*D:	*D:
*M3/4	*M3/4	*M3/4
*MM92	*MM92	*MM92
4D\	4.f#/ 4.a/	4.a/
4DD/	.	.
.	(8d/ 8f#/L	8f#/
4D\	8g/ 8b/	8b\
.	8f#/) 8a/J	8a/
=2	=2	=2
*	*^	*
(4C#/	(8.a/L	4e\	8.a/
.	16g/Jk)	.	16g/
*	*v	*v	*
4D\)	4d/ 4f#/	4f#/
4r	4r	4r
=3	=3	=3
2AA/	(8c#/ 8e/L	8e/
.	8d/ 8f#/	8f#/
.	8e/ 8g/	(8g/L
.	8g/ 8b/	8b/
4AA/	8f#/ 8a/	8a/J)
.	8e/) 8g/J	8g/
=4	=4	=4
2D\	4e/ (4g/	4g/
.	4d/ 4f#/)	4f#/
4DD/	4r	4r
=5	=5	=5
4D\	4.d/ 4.f#/ 4.a/	4.a/
*^	*	*
8ryy	8DD/	.	.
*	*	*^	*
4.D\	(8D/L	(8f#/L	4.d\	8f#/
.	8G/	8b/	.	8b\
.	8F#/J)	8a/J)	.	8a/
=6	=6	=6	=6	=6
(4E/	4AA\	(8.a/L	4c#\	8.a/
.	.	16g/Jk)	.	16g/
4D/)	4D\	4f#/	4d\	4f#/
*v	*v	*	*	*
*	*v	*v	*
4r	4r	4r
=7	=7	=7
*	*^	*
2E\	8e/L	(4c#\	8e/
.	8a/J	.	8a/
*	*v	*v	*
.	8.e/) 8.cc#/L	(8.cc#/L
.	(16d'/ 16e'/ 16b'/k	16b/k
*	*^	*
4EE/	8c#'/ 8a'/	4e\	8a/J)
.	8B'/) 8g#'/J	.	8g#/
*	*v	*v	*
=8	=8	=8
4.AA/	4d/ 4g#/ (4b/	4b\
.	4c#/ 4a/)	4a/
(8AA/L	.	.
8C#/	4r	4r
8E/J)	.	.
=9	=9	=9
4A\	4.e/ 4.gn/	4.g/
4AA/	.	.
.	(8d/ 8f#/L	8f#/
4AA/	8c#/ 8e/	8e/
.	8B/) 8d/J	8d/
=10	=10	=10
2AA/	(8.A/ 8.c#/L	8.c#/
.	16B/ 16d/Jk	16d/
.	4c#/) 4e/	4e/
4AAA/	4r	4r
=11	=11	=11
4AA/	4.c#^/ 4.g^/ 4.b^/	4.b\
(8AA/L	.	.
8BB/	(8f#/ 8a/L	8a/
8C#/	8e/ 8g/	8g/
8D/J)	8d/) 8f#/J	8f#/
=12	=12	=12
4A\	(8.c#/ 8.e/L	8.e/L
.	16d/ 16f#/Jk	16f#/Jk
4AA/	8c#/) 8e/L	4e/
.	(8c#/ 8e/	.
4r	8d/ 8f#/	4r
.	8e/) 8g/J	.
=13	=13	=13
4d\	4.f#/ 4.a/	4.a/
4D\	.	.
.	(8d/ 8f#/L	8f#/
4d\	8e/ 8g/	8g/
.	8f#/) 8a/J	8a/
=14	=14	=14
2G\	8g\ (8b\L	8b\L
.	8a\ 8cc#\	8cc#\
.	8cc#\ 8ee\	8ee\
.	8b\ 8dd\	8dd\J
4GG/	8a\ 8cc#\	8cc#\L
.	8g\ 8b\J)	8b\J
=15	=15	=15
*^	*	*
4AA/	2AA\	4.f#/ 4.a/	4.a^/
4.A/	.	.	.
.	.	(16e/ 16g/LL	16g/LL
.	.	16d/) 16f#/JJ	16f#/JJ
.	4AA\	8e/ 8g/L	8g/
8G/	.	8c#/ 8e/J	8e/
=16	=16	=16	=16
(4G/	2D\	4c#/ (4e/	4e/
4F#/)	.	4d/ 4f#/)	4f#/
*v	*v	*	*
4r	4r	4r
==	==	==
*-	*-	*-
!!!ENC: Craig Stuart Sapp
!!!END: 2004/06/03/
!!!EFL: 078/651
